dist/buttons/sleep.svg

<svg width="80" height="80" viewBox="0 0 80 80" fill="none" xmlns="http://www.w3.org/2000/svg">
<path fill-rule="evenodd" clip-rule="evenodd" d="M33 23.2592C25.4067 26.0967 20 33.4169 20 42C20 53.0457 28.9543 62 40 62C51.0457 62 60 53.0457 60 42C60 33.4169 54.5933 26.0967 47 23.2592V27.6085C52.3285 30.2051 56 35.6738 56 42C56 50.8366 48.8366 58 40 58C31.1634 58 24 50.8366 24 42C24 35.6738 27.6715 30.2051 33 27.6085V23.2592Z" fill="#DDDDDD"/>
<rect x="38" y="18" width="4" height="21" fill="#DDDDDD"/>
</svg>

<svg xmlns="http://www.w3.org/2000/svg" width="80" height="80" fill="none"><path fill="#DDD" fill-rule="evenodd" d="M33 23.26C25.407 26.096 20 33.416 20 42c0 11.046 8.954 20 20 20s20-8.954 20-20c0-8.583-5.407-15.903-13-18.74v4.348c5.328 2.597 9 8.066 9 14.392 0 8.837-7.163 16-16 16s-16-7.163-16-16c0-6.326 3.672-11.795 9-14.391z" clip-rule="evenodd"/><path fill="#DDD" d="M38 18h4v21h-4z"/></svg>
